X: 4426
T: HIGHLAND FLING
%R: fling, strathspey
B: James Kerr "Merry Melodies" v.4 p.48 #426
Z: 2016 John Chambers <jc:trillian.mit.edu>
M: C
L: 1/8
K: D
A |\
f>ed>B A<F F>B | A<F d>B A<F FA |\
f>ed>B A<F F>B | A<d e>f d2-d :: g |\
(3fed a>d (3fed a>d |
c>eA>e c>eA>g |\
(3fed a>d (3fed a>d | B<d c<e d2-d H:: \
[K:=c]\
[K:G]\
c |\
B2B>A (B<d) d>c | B>cB>A (B<d) d2 |
e>fg>e d>Bg>e | d<B B>G F<A A<d |\
B2BA (B<d) d>c | B>cB>A (B<d) d2 |\
e>fg>e d>Bg>e | d<B A>B "^D.C."G3 :|

%%sep 1 1 500
%%sep 1 1 500

